svg/s/ER.svg

<svg width="16" height="12" viewBox="0 0 16 12" fill="none" xmlns="http://www.w3.org/2000/svg">
<g clip-path="url(#clip0_270_55155)">
<rect width="16" height="12" fill="white"/>
<path fill-rule="evenodd" clip-rule="evenodd" d="M0 0V6H16V0H0Z" fill="#43B764"/>
<path fill-rule="evenodd" clip-rule="evenodd" d="M0 6V12H16V6H0Z" fill="#B4D7F4"/>
<path fill-rule="evenodd" clip-rule="evenodd" d="M0 0L16.5 6L0 12V0Z" fill="#BE0027"/>
<path fill-rule="evenodd" clip-rule="evenodd" d="M4.5566 8.68384L4.07951 8.69483C4.04524 8.6501 4.01357 8.60739 3.9843 8.56639C3.74756 8.10431 3.62918 7.61804 3.62918 7.10757C3.62918 7.15254 3.62906 7.1956 3.62894 7.23697C3.62727 7.81863 3.62656 8.06527 3.9843 8.56639C4.08565 8.76421 4.2087 8.95759 4.35344 9.14654L4.9699 8.67432L4.5566 8.68384Z" fill="#F3E294"/>
<path fill-rule="evenodd" clip-rule="evenodd" d="M1 6.25C1 8.04493 2.45507 9.5 4.25 9.5C6.04493 9.5 7.5 8.04493 7.5 6.25C7.5 4.45507 6.04493 3 4.25 3C2.45507 3 1 4.45507 1 6.25ZM6.5 6.25C6.5 7.49264 5.49264 8.5 4.25 8.5C3.00736 8.5 2 7.49264 2 6.25C2 5.00736 3.00736 4 4.25 4C5.49264 4 6.5 5.00736 6.5 6.25Z" fill="#F3E294"/>
</g>
<defs>
<clipPath id="clip0_270_55155">
<rect width="16" height="12" fill="white"/>
</clipPath>
</defs>
</svg>

<svg width="17" height="12" fill="none" xmlns="http://www.w3.org/2000/svg">
  <mask id="a" maskUnits="userSpaceOnUse" x="0" y="0" width="17" height="12">
    <path fill="#fff" d="M0 0h17v12H0z"/>
  </mask>
  <g mask="url(#a)" fill-rule="evenodd" clip-rule="evenodd">
    <path d="M0 0v6h16V0H0z" fill="#43B764"/>
    <path d="M0 6v6h16V6H0z" fill="#B4D7F4"/>
    <path d="M0 0l16.5 6L0 12V0z" fill="#BE0027"/>
    <path d="M4.557 8.684l-.477.01a4.742 4.742 0 01-.096-.128 3.157 3.157 0 01-.355-1.458v.129c-.002.582-.002.828.355 1.33.102.197.225.39.37.58l.616-.473-.413.01z" fill="#F3E294"/>
    <path d="M1 6.25a3.25 3.25 0 106.5 0 3.25 3.25 0 00-6.5 0zm5.5 0a2.25 2.25 0 11-4.5 0 2.25 2.25 0 014.5 0z" fill="#F3E294"/>
  </g>
</svg>
